;START_OF_HEADER
;HEADER_VERSION:0.1
;FLAVOR:Griffin
;GENERATOR.NAME:Cura_SteamEngine
;GENERATOR.VERSION:4.5.0
;GENERATOR.BUILD_DATE:2020-02-25
;TARGET_MACHINE.NAME:Ultimaker S5
;EXTRUDER_TRAIN.0.INITIAL_TEMPERATURE:205
;EXTRUDER_TRAIN.0.MATERIAL.VOLUME_USED:7563
;EXTRUDER_TRAIN.0.MATERIAL.GUID:506c9f0d-e3aa-4bd4-b2d2-23e2425b1aa9
;EXTRUDER_TRAIN.0.NOZZLE.DIAMETER:0.4
;EXTRUDER_TRAIN.0.NOZZLE.NAME:AA 0.4
;BUILD_PLATE.TYPE:glass
;BUILD_PLATE.INITIAL_TEMPERATURE:60
;BUILD_VOLUME.TEMPERATURE:28
;PRINT.TIME:3114
;PRINT.GROUPS:1
;PRINT.SIZE.MIN.X:135.565
;PRINT.SIZE.MIN.Y:97.129
;PRINT.SIZE.MIN.Z:0.2
;PRINT.SIZE.MAX.X:187.258
;PRINT.SIZE.MAX.Y:142.907
;PRINT.SIZE.MAX.Z:62.2
;END_OF_HEADER
;Generated with Cura_SteamEngine 4.5.0
T0
M82 ;absolute extrusion mode

G92 E0
M109 S205
G280 S1
G0 Z20.001
G1 F1500 E-6.5
;LAYER_COUNT:311
;LAYER:0
M107
M204 S625
M205 X10 Y10
G1 F600 Z2.2
G0 F2571.4 X177.826 Y132.291 Z2.2
M204 S500
M205 X5 Y5
;TYPE:SKIRT
G1 F600 Z0.2
G1 F1500 E0
G1 F1200 X177.253 Y133.149 E0.01359
G1 X175.771 Y135.046 E0.04528
G1 X175.074 Y135.812 E0.05892
G1 X173.328 Y137.465 E0.09058
G1 X172.517 Y138.125 E0.10435
G1 X170.547 Y139.493 E0.13593
G1 X169.654 Y140.019 E0.14957
G1 X167.496 Y141.081 E0.18124
G1 X166.529 Y141.469 E0.19496
G1 X164.244 Y142.193 E0.22653
G1 X163.232 Y142.432 E0.24022
G1 X160.857 Y142.807 E0.27188
G1 X159.819 Y142.892 E0.28559
G1 X157.421 Y142.907 E0.31717
G1 X156.386 Y142.836 E0.33083
G1 X154.007 Y142.492 E0.36248
G1 X152.991 Y142.266 E0.37618
G1 X150.695 Y141.571 E0.40777
G1 X149.722 Y141.194 E0.42151
G1 X147.554 Y140.161 E0.45313
G1 X146.656 Y139.647 E0.46676
G1 X144.668 Y138.304 E0.49835
G1 X143.853 Y137.66 E0.51202
G1 X142.084 Y136.031 E0.54369
G1 X141.369 Y135.266 E0.55748
G1 X139.867 Y133.391 E0.58911
G1 X139.283 Y132.538 E0.60272
G1 X138.08 Y130.466 E0.63427
G1 X137.626 Y129.528 E0.64799
G1 X136.744 Y127.291 E0.67965
G1 X136.436 Y126.298 E0.69334
G1 X135.9 Y123.96 E0.72493
G1 X135.744 Y122.93 E0.73864
G1 X135.565 Y120.548 E0.7701
G1 X135.565 Y119.522 E0.78361
G1 X135.741 Y117.124 E0.81527
G1 X135.895 Y116.091 E0.82902
G1 X136.425 Y113.765 E0.86043
G1 X136.732 Y112.772 E0.87412
G1 X137.607 Y110.544 E0.90564
G1 X138.054 Y109.614 E0.91922
G1 X139.247 Y107.546 E0.95066
G1 X139.83 Y106.69 E0.9643
G1 X141.32 Y104.82 E0.99578
G1 X142.026 Y104.06 E1.00944
G1 X143.78 Y102.432 E1.04095
G1 X144.588 Y101.787 E1.05456
G1 X146.562 Y100.44 E1.08603
G1 X147.456 Y99.923 E1.09963
G1 X149.611 Y98.883 E1.13114
G1 X150.577 Y98.503 E1.1448
G1 X152.858 Y97.798 E1.17624
G1 X153.87 Y97.567 E1.18991
G1 X156.237 Y97.21 E1.22143
G1 X157.262 Y97.132 E1.23496
G1 X159.65 Y97.129 E1.26641
G1 X163.054 Y97.561 E1.31159
G1 X164.064 Y97.79 E1.32523
G1 X166.346 Y98.492 E1.35666
G1 X167.314 Y98.872 E1.37036
G1 X169.47 Y99.91 E1.40186
G1 X170.363 Y100.425 E1.41544
G1 X172.338 Y101.769 E1.44689
G1 X173.148 Y102.413 E1.46052
G1 X174.905 Y104.04 E1.49205
G1 X175.612 Y104.802 E1.50574
G1 X177.104 Y106.671 E1.53723
G1 X177.688 Y107.525 E1.55085
G1 X178.883 Y109.592 E1.58229
G1 X179.332 Y110.525 E1.59592
G1 X180.208 Y112.753 E1.62745
G1 X180.513 Y113.739 E1.64104
G1 X181.047 Y116.066 E1.67247
G1 X181.204 Y117.097 E1.6862
G1 X181.383 Y119.482 E1.7177
G1 X181.384 Y120.497 E1.73106
G1 X181.215 Y122.85 E1.76212
G1 X181.066 Y123.868 E1.77567
G1 X180.553 Y126.16 E1.8066
G1 X180.258 Y127.134 E1.82
G1 X179.414 Y129.328 E1.85095
G1 X178.98 Y130.248 E1.86435
G1 X177.826 Y132.291 E1.89524
M204 S625
M205 X10 Y10
G0 F2571.4 X177.46 Y132.085
M204 S500
M205 X5 Y5
G1 F1200 X176.922 Y132.891 E1.908
G1 X175.44 Y134.788 E1.9397
G1 X174.786 Y135.507 E1.9525
G1 X173.04 Y137.16 E1.98416
G1 X172.277 Y137.78 E1.9971
G1 X170.307 Y139.148 E2.02868
G1 X169.468 Y139.642 E2.0415
G1 X167.31 Y140.704 E2.07317
G1 X166.402 Y141.069 E2.08606
G1 X164.117 Y141.793 E2.11762
G1 X163.166 Y142.017 E2.13048
G1 X160.791 Y142.392 E2.16214
G1 X159.817 Y142.472 E2.17501
G1 X157.419 Y142.487 E2.20659
G1 X156.446 Y142.42 E2.21943
G1 X154.067 Y142.076 E2.25108
G1 X153.113 Y141.864 E2.26395
G1 X150.817 Y141.169 E2.29554
G1 X149.903 Y140.815 E2.30844
G1 X147.735 Y139.782 E2.34006
G1 X146.891 Y139.299 E2.35287
G1 X144.903 Y137.956 E2.38446
G1 X144.137 Y137.351 E2.39731
G1 X142.368 Y135.722 E2.42898
G1 X141.697 Y135.003 E2.44193
G1 X140.195 Y133.128 E2.47356
G1 X139.646 Y132.327 E2.48635
G1 X138.443 Y130.255 E2.51789
G1 X138.017 Y129.374 E2.53078
G1 X137.135 Y127.137 E2.56244
G1 X136.846 Y126.204 E2.5753
G1 X136.31 Y123.866 E2.60689
G1 X136.163 Y122.899 E2.61977
G1 X135.984 Y120.517 E2.65122
G1 X135.983 Y119.552 E2.66393
G1 X136.159 Y117.154 E2.69559
G1 X136.305 Y116.185 E2.70849
G1 X136.835 Y113.859 E2.7399
G1 X137.123 Y112.925 E2.75277
G1 X137.998 Y110.697 E2.78429
G1 X138.418 Y109.824 E2.79705
G1 X139.611 Y107.756 E2.82848
G1 X140.159 Y106.952 E2.84129
G1 X141.649 Y105.082 E2.87278
G1 X142.311 Y104.368 E2.8856
G1 X144.065 Y102.74 E2.91711
G1 X144.825 Y102.134 E2.92991
G1 X146.799 Y100.787 E2.96138
G1 X147.639 Y100.301 E2.97415
G1 X149.794 Y99.261 E3.00566
G1 X150.701 Y98.904 E3.0185
G1 X152.982 Y98.199 E3.04993
G1 X153.933 Y97.982 E3.06278
G1 X156.3 Y97.625 E3.0943
G1 X157.263 Y97.552 E3.10701
G1 X159.651 Y97.549 E3.13846
G1 X162.992 Y97.976 E3.18281
G1 X163.94 Y98.192 E3.19561
G1 X166.222 Y98.894 E3.22705
G1 X167.132 Y99.25 E3.23991
G1 X169.288 Y100.288 E3.27142
G1 X170.127 Y100.772 E3.28418
G1 X172.102 Y102.116 E3.31563
G1 X172.862 Y102.721 E3.32842
G1 X174.619 Y104.348 E3.35995
G1 X175.284 Y105.064 E3.37282
G1 X176.776 Y106.933 E3.40431
G1 X177.324 Y107.736 E3.41711
G1 X178.519 Y109.803 E3.44855
G1 X178.942 Y110.679 E3.46136
G1 X179.818 Y112.907 E3.49288
G1 X180.104 Y113.833 E3.50564
G1 X180.638 Y116.16 E3.53708
G1 X180.785 Y117.129 E3.54998
G1 X180.964 Y119.514 E3.58148
G1 X180.796 Y122.82 E3.62506
G1 X180.656 Y123.776 E3.63779
G1 X180.143 Y126.068 E3.66871
G1 X179.022 Y129.177 E3.71223
G1 X177.46 Y132.085 E3.7557
M204 S625
M205 X10 Y10
G0 F2571.4 X177.095 Y131.878
M204 S500
M205 X5 Y5
G1 F1200 X175.109 Y134.529 E3.79931
G1 X172.751 Y136.855 E3.84292
G1 X172.038 Y137.435 E3.85503
G1 X170.068 Y138.803 E3.88661
G1 X167.125 Y140.327 E3.93025
G1 X166.275 Y140.669 E3.94231
G1 X163.99 Y141.393 E3.97387
G1 X160.726 Y141.977 E4.01753
G1 X159.814 Y142.052 E4.02958
G1 X157.416 Y142.067 E4.06116
G1 X154.127 Y141.66 E4.1048
G1 X150.939 Y140.767 E4.14839
G1 X150.083 Y140.436 E4.16047
G1 X147.915 Y139.403 E4.1921
G1 X145.138 Y137.608 E4.23564
G1 X142.653 Y135.413 E4.27929
G1 X142.025 Y134.74 E4.29141
G1 X140.523 Y132.865 E4.32305
G1 X138.806 Y130.044 E4.36653
G1 X137.525 Y126.983 E4.41022
G1 X136.719 Y123.772 E4.45382
G1 X136.403 Y120.485 E4.4973
G1 X136.578 Y117.185 E4.54081
G1 X137.244 Y113.952 E4.58427
G1 X138.388 Y110.851 E4.6278
G1 X139.975 Y107.966 E4.67115
G1 X141.977 Y105.344 E4.71459
G1 X144.351 Y103.047 E4.75809
G1 X147.035 Y101.134 E4.80149
G1 X149.976 Y99.639 E4.84493
G1 X153.106 Y98.601 E4.88835
G1 X156.363 Y98.04 E4.93187
G1 X159.651 Y97.969 E4.97517
G1 X162.929 Y98.391 E5.01869
G1 X166.099 Y99.295 E5.0621
G1 X169.106 Y100.667 E5.10562
G1 X171.865 Y102.463 E5.14896
G1 X174.334 Y104.657 E5.19246
G1 X176.447 Y107.195 E5.23594
G1 X178.155 Y110.013 E5.27933
G1 X179.427 Y113.061 E5.32282
G1 X180.229 Y116.254 E5.36617
G1 X180.545 Y119.545 E5.4097
G1 X180.377 Y122.79 E5.45249
G1 X179.733 Y125.976 E5.49529
G1 X178.63 Y129.027 E5.538
G1 X177.095 Y131.878 E5.58064
M204 S625
M205 X10 Y10
G0 F2571.4 X176.729 Y131.672
M204 S500
M205 X5 Y5
G1 F1200 X174.778 Y134.271 E5.62343
G1 X172.462 Y136.55 E5.66622
G1 X169.828 Y138.458 E5.70904
G1 X166.94 Y139.95 E5.75184
G1 X163.864 Y140.992 E5.79461
G1 X160.66 Y141.563 E5.83746
G1 X157.413 Y141.647 E5.88023
G1 X154.188 Y141.245 E5.92302
G1 X151.06 Y140.365 E5.96581
G1 X148.096 Y139.024 E6.00865
G1 X145.373 Y137.26 E6.05137
G1 X142.937 Y135.104 E6.0942
G1 X140.851 Y132.603 E6.13708
G1 X139.17 Y129.833 E6.17975
G1 X137.916 Y126.829 E6.22261
G1 X137.128 Y123.678 E6.26538
G1 X136.822 Y120.454 E6.30802
G1 X136.997 Y117.216 E6.35072
G1 X137.654 Y114.045 E6.39336
G1 X138.779 Y111.004 E6.43606
G1 X140.339 Y108.176 E6.47858
G1 X142.306 Y105.606 E6.5212
G1 X144.637 Y103.355 E6.56387
G1 X147.272 Y101.48 E6.60645
G1 X150.159 Y100.018 E6.64906
G1 X153.23 Y99.002 E6.69165
G1 X156.425 Y98.455 E6.73433
G1 X159.652 Y98.389 E6.77683
G1 X162.867 Y98.807 E6.81952
G1 X165.975 Y99.697 E6.86209
G1 X168.924 Y101.045 E6.90479
G1 X171.629 Y102.81 E6.94732
G1 X174.048 Y104.965 E6.98998
G1 X176.119 Y107.457 E7.03264
G1 X177.792 Y110.223 E7.07521
G1 X179.036 Y113.214 E7.11786
G1 X179.819 Y116.348 E7.1604
G1 X180.126 Y119.577 E7.2031
G1 X179.958 Y122.76 E7.24507
G1 X179.323 Y125.884 E7.28705
G1 X178.238 Y128.876 E7.32896
G1 X176.729 Y131.672 E7.37079
M204 S625
M205 X10 Y10
G0 F2571.4 X176.363 Y131.465
M204 S500
M205 X5 Y5
G1 F1200 X174.447 Y134.012 E7.41276
G1 X172.173 Y136.245 E7.45473
G1 X169.588 Y138.113 E7.49672
G1 X166.754 Y139.573 E7.5387
G1 X163.737 Y140.592 E7.58063
G1 X160.595 Y141.148 E7.62264
G1 X157.411 Y141.227 E7.66458
G1 X154.248 Y140.829 E7.70656
G1 X151.182 Y139.963 E7.74851
G1 X148.277 Y138.644 E7.79052
G1 X145.608 Y136.912 E7.83241
G1 X143.222 Y134.795 E7.87441
G1 X141.179 Y132.34 E7.91647
G1 X139.533 Y129.622 E7.95831
G1 X138.307 Y126.675 E8.00034
G1 X137.538 Y123.584 E8.04228
G1 X137.241 Y120.422 E8.0841
G1 X137.416 Y117.247 E8.12597
G1 X138.063 Y114.139 E8.16777
G1 X139.17 Y111.158 E8.20964
G1 X140.702 Y108.386 E8.25134
G1 X142.634 Y105.867 E8.29314
G1 X144.922 Y103.663 E8.33498
G1 X147.509 Y101.827 E8.37675
G1 X150.341 Y100.396 E8.41853
G1 X153.354 Y99.403 E8.4603
G1 X156.488 Y98.871 E8.50216
G1 X159.652 Y98.809 E8.54383
G1 X162.805 Y99.222 E8.5857
G1 X165.852 Y100.098 E8.62744
G1 X168.741 Y101.424 E8.6693
G1 X171.393 Y103.158 E8.71102
G1 X173.763 Y105.273 E8.75285
G1 X175.791 Y107.719 E8.79469
G1 X177.428 Y110.433 E8.83642
G1 X178.645 Y113.368 E8.87826
G1 X179.41 Y116.442 E8.91997
G1 X179.707 Y119.608 E8.96184
G1 X179.54 Y122.73 E9.00301
G1 X178.913 Y125.793 E9.04417
G1 X177.846 Y128.725 E9.08526
G1 X176.363 Y131.465 E9.12628
M204 S625
M205 X10 Y10
G0 F2571.4 X175.997 Y131.258
M204 S500
M205 X5 Y5
G1 F1200 X174.116 Y133.754 E9.16743
G1 X171.885 Y135.94 E9.20856
G1 X169.349 Y137.768 E9.24973
G1 X166.569 Y139.197 E9.29088
G1 X163.61 Y140.191 E9.33199
G1 X160.529 Y140.733 E9.37318
G1 X157.408 Y140.807 E9.41428
G1 X154.308 Y140.413 E9.45543
G1 X151.304 Y139.561 E9.49655
G1 X148.457 Y138.265 E9.53774
G1 X145.843 Y136.564 E9.5788
G1 X143.506 Y134.486 E9.61998
G1 X141.506 Y132.078 E9.6612
G1 X139.896 Y129.411 E9.70222
G1 X138.698 Y126.521 E9.74341
G1 X137.947 Y123.49 E9.78453
G1 X137.66 Y120.391 E9.82551
G1 X137.835 Y117.277 E9.86658
G1 X138.473 Y114.232 E9.90754
G1 X139.561 Y111.311 E9.94858
G1 X141.066 Y108.595 E9.98947
G1 X142.962 Y106.129 E10.03043
G1 X145.208 Y103.971 E10.07144
G1 X147.746 Y102.174 E10.11239
G1 X150.524 Y100.774 E10.15335
G1 X153.478 Y99.804 E10.19429
G1 X156.551 Y99.286 E10.23532
G1 X159.653 Y99.229 E10.27618
G1 X162.742 Y99.637 E10.3172
G1 X165.728 Y100.499 E10.35813
G1 X168.559 Y101.802 E10.39916
G1 X171.156 Y103.505 E10.44006
G1 X173.478 Y105.581 E10.48107
G1 X175.463 Y107.981 E10.52208
G1 X177.064 Y110.644 E10.56299
G1 X178.254 Y113.522 E10.604
G1 X179.001 Y116.536 E10.64489
G1 X179.288 Y119.64 E10.68593
G1 X179.121 Y122.7 E10.72629
G1 X178.503 Y125.701 E10.76663
G1 X177.454 Y128.574 E10.8069
G1 X175.997 Y131.258 E10.84712
M204 S625
M205 X10 Y10
G0 F2571.4 X175.632 Y131.052
M204 S500
M205 X5 Y5
G1 F1200 X173.785 Y133.495 E10.88744
G1 X171.596 Y135.635 E10.92775
G1 X169.109 Y137.423 E10.96808
G1 X166.383 Y138.82 E11.00842
G1 X163.483 Y139.791 E11.04869
G1 X160.464 Y140.318 E11.08904
G1 X157.406 Y140.387 E11.12931
G1 X154.368 Y139.998 E11.16964
G1 X151.425 Y139.159 E11.20994
G1 X148.638 Y137.886 E11.25028
G1 X146.078 Y136.216 E11.29053
G1 X143.791 Y134.177 E11.33088
G1 X141.834 Y131.815 E11.37126
G1 X140.259 Y129.2 E11.41146
G1 X139.088 Y126.367 E11.45182
G1 X138.357 Y123.396 E11.49211
G1 X138.078 Y120.359 E11.53227
G1 X138.254 Y117.308 E11.57251
G1 X138.882 Y114.325 E11.61265
G1 X139.952 Y111.465 E11.65286
G1 X141.43 Y108.805 E11.69293
G1 X143.291 Y106.391 E11.73306
G1 X145.494 Y104.279 E11.77325
G1 X147.982 Y102.521 E11.81336
G1 X150.706 Y101.152 E11.8535
G1 X153.602 Y100.206 E11.89362
G1 X156.613 Y99.701 E11.93382
G1 X159.653 Y99.649 E11.97385
G1 X162.68 Y100.053 E12.01406
G1 X165.605 Y100.901 E12.05417
G1 X168.377 Y102.181 E12.09437
G1 X170.92 Y103.852 E12.13444
G1 X173.192 Y105.889 E12.17462
G1 X175.135 Y108.243 E12.21481
G1 X176.701 Y110.854 E12.2549
G1 X177.863 Y113.675 E12.29507
G1 X178.591 Y116.63 E12.33514
G1 X178.87 Y119.671 E12.37535
G1 X178.702 Y122.67 E12.4149
G1 X178.094 Y125.609 E12.45442
G1 X177.062 Y128.423 E12.49389
G1 X175.632 Y131.052 E12.53329
M204 S625
M205 X10 Y10
G0 F2571.4 X175.266 Y130.845
M204 S500
M205 X5 Y5
G1 F1200 X173.454 Y133.236 E12.5728
G1 X171.307 Y135.33 E12.61229
G1 X168.87 Y137.078 E12.65178
G1 X166.198 Y138.443 E12.69129
G1 X163.356 Y139.391 E12.73073
G1 X160.398 Y139.903 E12.77026
G1 X157.403 Y139.967 E12.80971
G1 X154.428 Y139.582 E12.84921
G1 X151.547 Y138.757 E12.88867
G1 X148.819 Y137.507 E12.92818
G1 X146.313 Y135.868 E12.96761
G1 X144.075 Y133.868 E13.00713
G1 X142.162 Y131.553 E13.04667
G1 X140.622 Y128.989 E13.08605
G1 X139.479 Y126.213 E13.12558
G1 X138.766 Y123.303 E13.16504
G1 X138.497 Y120.328 E13.20437
G1 X138.673 Y117.339 E13.24379
G1 X139.292 Y114.419 E13.2831
G1 X140.343 Y111.618 E13.32249
G1 X141.794 Y109.015 E13.36173
G1 X143.619 Y106.653 E13.40103
G1 X145.78 Y104.587 E13.4404
G1 X148.219 Y102.868 E13.47969
G1 X150.889 Y101.531 E13.51901
G1 X153.726 Y100.607 E13.5583
G1 X156.676 Y100.117 E13.59767
G1 X159.654 Y100.069 E13.63689
G1 X162.618 Y100.468 E13.67627
G1 X165.481 Y101.302 E13.71553
G1 X168.195 Y102.559 E13.75492
G1 X170.684 Y104.199 E13.79417
G1 X172.907 Y106.197 E13.83352
G1 X174.806 Y108.505 E13.87288
G1 X176.337 Y111.064 E13.91214
G1 X177.472 Y113.829 E13.9515
G1 X178.182 Y116.724 E13.99075
G1 X178.451 Y119.702 E14.03012
G1 X178.283 Y122.64 E14.06887
G1 X177.684 Y125.517 E14.10756
G1 X176.67 Y128.273 E14.14623
G1 X175.266 Y130.845 E14.18482
M204 S625
M205 X10 Y10
G0 F2571.4 X174.9 Y130.639
M204 S500
M205 X5 Y5
G1 F1200 X173.123 Y132.978 E14.22349
G1 X171.018 Y135.025 E14.26216
G1 X168.63 Y136.733 E14.30081
G1 X166.012 Y138.066 E14.3395
G1 X163.229 Y138.99 E14.37811
G1 X160.333 Y139.488 E14.4168
G1 X157.4 Y139.547 E14.45543
G1 X154.488 Y139.166 E14.4941
G1 X151.669 Y138.355 E14.53272
G1 X148.999 Y137.128 E14.57142
G1 X146.549 Y135.52 E14.61
G1 X144.36 Y133.559 E14.6487
G1 X142.49 Y131.29 E14.68742
G1 X140.986 Y128.779 E14.72596
G1 X139.87 Y126.058 E14.76468
G1 X139.175 Y123.209 E14.8033
G1 X138.916 Y120.297 E14.84179
G1 X139.092 Y117.37 E14.8804
G1 X139.701 Y114.512 E14.91888
G1 X140.734 Y111.772 E14.95744
G1 X142.158 Y109.225 E14.99586
G1 X143.948 Y106.914 E15.03435
G1 X146.065 Y104.894 E15.07288
G1 X148.456 Y103.215 E15.11135
G1 X151.071 Y101.909 E15.14984
G1 X153.85 Y101.008 E15.18831
G1 X156.739 Y100.532 E15.22686
G1 X159.655 Y100.489 E15.26526
G1 X162.556 Y100.883 E15.30381
G1 X165.358 Y101.704 E15.34225
G1 X168.013 Y102.937 E15.3808
G1 X170.447 Y104.547 E15.41923
G1 X172.622 Y106.506 E15.45777
G1 X174.478 Y108.767 E15.49629
G1 X175.974 Y111.274 E15.53473
G1 X177.081 Y113.983 E15.57326
G1 X177.773 Y116.818 E15.61169
G1 X178.032 Y119.734 E15.65024
G1 X177.864 Y122.61 E15.68817
G1 X177.274 Y125.426 E15.72605
G1 X176.278 Y128.122 E15.7639
G1 X174.9 Y130.639 E15.80168
M204 S625
M205 X10 Y10
